X:1
T:Title
%%score [ ( 1 2 ) ( 3 4 ) ]
L:1/8
Q:1/4=100
M:4/4
K:Eb
V:1 treble nm="Midi_20" snm=" "
V:2 treble 
V:3 bass nm="Midi_20"
V:4 bass 
V:1
"^The sun declines""^John Stainer\n(1840-1901)""^Robert Walmsley\n(1831-1905)""^Gloaming (84. 84. D)" G2 | %1
 A2 F2 G2 G2 | A2 F2 G4 | E4 D2 C2 | F6 || G2 | A2 F2 G2 B2 | c2 =A2 B2 c2 | (d2 B2) c4 | B6 || %10
[M:4/4] B2 | c3 G G2 c2 | =B2 c2 d4 | e4 c2 A2 | (G4 F2) || F2 | G2 A2 B2 =B2 | c2 G2 A2 F2 | %18
 E4 (G2 F2) | E6 |] %20
V:2
 E2 | F2 F2 E2 _D2 | C2 !courtesy!=D2 E4 | B,4 =A,2 A,2 | B,6 || G2 | F2 F2 E2 G2 | G2 ^F2 G2 =E2 | %8
 F4 =A4 | B6 ||[M:4/4] F2 | =E3 E E2 F2 | F2 _E2 (G2 F2) | E4 E2 E2 | (E4 D2) || D2 | E2 F2 G2 G2 | %17
 A2 _D2 C2 C2 | (B,2 C2) D4 | E6 |] %20
V:3
 B,2 | C2 B,2 B,2 B,2 | A,2 B,2 B,4 | (E,2 G,2) F,2 E,2 | (E,4 D,2) || B,2 | C2 B,2 B,2 G,2 | %7
 =A,2 C2 B,2 B,2 | (B,2 D2) E4 | D6 || %10
[M:4/4]"^1. The sun declines; o'er land and sea\nCreeps on the night;\nThe twinkling stars come one by one\nTo shed their light;\nWith thee there is no darkness, Lord;\nWith us abide,\nAnd 'neath thy wings we rest secure,\nThis eventide.\n\n2. Forgive the wrong this day we've done,\nOr thought, or said;\nEach moment with its good or ill\nTo thee has fled;" D2 | %11
 C3 C C2 C2 | D2 C2 =B,4 | C4 C2 E2 | B,6 || %15
"^O Father, in thy mercy great\nWill we confide;\nThy benediction now bestow\nThis eventide.\n\n3. And when, with morning light we rise,\nKept by thy care,\nWe'll lift to thee with grateful hearts\nOur morning prayer.\nBe thou through life our Strength and Stay,\nOur Guard and Guide\nTo that dear home where there will be\nNo eventide." B,2 | %16
 E2 D2 _D2 D2 | C2 B,2 A,2 A,2 | G,4 A,4 | G,6 |] %20
V:4
 E,2 | E,2 D,2 E,2 =E,2 | F,2 B,,2 (E,2 D,2) | C,4 C,2 C,2 | B,,6 || E,2 | E,2 D,2 E,2 E,2 | %7
 D,2 D,2 G,2 G,2 | F,4 F,4 | B,6 ||[M:4/4] B,2 | B,3 B, B,2 A,2 | G,2 G,2 G,4 | C,4 C2 C2 | B,6 || %15
 A,2 | G,2 F,2 E,2 E,2 | A,2 =E,2 F,2 A,,2 | B,,4 B,,4 | E,6 |] %20

